Numix-GalliumOS/32/status/pamac-cleanup.svg

<?xml version="1.0" encoding="UTF-8" standalone="no"?>
<svg
   xmlns:dc="http://purl.org/dc/elements/1.1/"
   xmlns:cc="http://creativecommons.org/ns#"
   xmlns:rdf="http://www.w3.org/1999/02/22-rdf-syntax-ns#"
   xmlns:svg="http://www.w3.org/2000/svg"
   xmlns="http://www.w3.org/2000/svg"
   xmlns:sodipodi="http://sodipodi.sourceforge.net/DTD/sodipodi-0.dtd"
   xmlns:inkscape="http://www.inkscape.org/namespaces/inkscape"
   width="32"
   height="32"
   viewBox="0 0 32 32"
   id="svg2"
   version="1.1"
   inkscape:version="0.91 r"
   sodipodi:docname="pamac-cleanup.svg">
  <metadata
     id="metadata10">
    <rdf:RDF>
      <cc:Work
         rdf:about="">
        <dc:format>image/svg+xml</dc:format>
        <dc:type
           rdf:resource="http://purl.org/dc/dcmitype/StillImage" />
        <dc:title></dc:title>
      </cc:Work>
    </rdf:RDF>
  </metadata>
  <defs
     id="defs8" />
  <sodipodi:namedview
     pagecolor="#ffffff"
     bordercolor="#666666"
     borderopacity="1"
     objecttolerance="10"
     gridtolerance="10"
     guidetolerance="10"
     inkscape:pageopacity="0"
     inkscape:pageshadow="2"
     inkscape:window-width="1366"
     inkscape:window-height="747"
     id="namedview6"
     showgrid="true"
     inkscape:zoom="8"
     inkscape:cx="1.2967887"
     inkscape:cy="1.4476207"
     inkscape:window-x="0"
     inkscape:window-y="21"
     inkscape:window-maximized="1"
     inkscape:current-layer="svg2">
    <inkscape:grid
       type="xygrid"
       id="grid4138" />
  </sodipodi:namedview>
  <path
     style="fill:#c28e5c"
     d="M 10 5 L 5 11 L 15 11 L 15 5 L 10 5 z M 17 5 L 17 11 L 27 11 L 22 5 L 17 5 z M 5 13 L 5 27 L 19.050781 27 L 20.292969 25.757812 L 18.171875 23.634766 L 23.121094 18.6875 L 25.242188 20.808594 L 25.949219 20.101562 L 27 19.048828 L 27 13 L 5 13 z "
     id="path4" />
  <path
     sodipodi:nodetypes="ccccccccccccc"
     inkscape:connector-curvature="0"
     id="path4-4-4"
     d="m 27.364226,21.514851 -2.12132,2.12132 -2.12132,-2.12132 L 21,23.635906 23.121321,25.757226 21.000133,27.87868 23.121454,30 l 2.121187,-2.121453 2.12132,2.12132 2.121586,-2.121055 -2.121321,-2.12132 2.121321,-2.121321 z"
     style="fill:#ee545b;fill-opacity:1" />
</svg>

<svg xmlns="http://www.w3.org/2000/svg" viewBox="0 0 32 32">
 <path d="m 10 5 l -5 6 l 10 0 l 0 -6 l -5 0 z m 7 0 l 0 6 l 10 0 l -5 -6 l -5 0 z m -12 8 l 0 14 l 14.05 0 l 1.242 -1.242 l -2.121 -2.123 l 4.949 -4.947 l 2.121 2.121 l 0.707 -0.707 l 1.051 -1.053 l 0 -6.05 l -22 0 z" style="fill:#c28e5c"/>
 <path d="m 27.364 21.515 -2.121 2.121 -2.121 -2.121 l -2.122 2.121 2.121 2.121 -2.121 2.121 2.121 2.121 l 2.121 -2.121 2.121 2.121 2.122 -2.121 -2.121 -2.121 2.121 -2.121 z" style="fill:#ee545b;fill-opacity:1"/>
</svg>
